src/assets/icons/days,simple,monday.svg

<svg width="48" height="48" viewBox="0 0 48 48" fill="none" xmlns="http://www.w3.org/2000/svg">
<rect opacity="0.2" x="5" y="5" width="38" height="38" rx="4" fill="black"/>
<path d="M5 13C5 9.22876 5 7.34315 6.17157 6.17157C7.34315 5 9.22876 5 13 5H35C38.7712 5 40.6569 5 41.8284 6.17157C43 7.34315 43 9.22876 43 13V15H5V13Z" fill="black"/>
<path d="M9.981 21.4545V36H12.964V26.4972H13.0847L16.8489 35.929H18.8801L22.6444 26.5327H22.7651V36H25.748V21.4545H21.9554L17.9498 31.2273H17.7793L13.7736 21.4545H9.981ZM33.1539 36.2131C36.4636 36.2131 38.5233 33.9474 38.5233 30.5881C38.5233 27.2074 36.4636 24.9489 33.1539 24.9489C29.8443 24.9489 27.7846 27.2074 27.7846 30.5881C27.7846 33.9474 29.8443 36.2131 33.1539 36.2131ZM33.1681 33.8693C31.6412 33.8693 30.8599 32.4702 30.8599 30.5668C30.8599 28.6634 31.6412 27.2571 33.1681 27.2571C34.6667 27.2571 35.448 28.6634 35.448 30.5668C35.448 32.4702 34.6667 33.8693 33.1681 33.8693Z" fill="black"/>
</svg>

<svg xmlns="http://www.w3.org/2000/svg" width="48" height="48" fill="none" viewBox="0 0 48 48">
  <rect width="38" height="38" x="5" y="5" fill="#000" opacity=".2" rx="4"/>
  <path fill="#000" d="M5 13c0-3.771 0-5.657 1.172-6.828C7.343 5 9.229 5 13 5h22c3.771 0 5.657 0 6.828 1.172C43 7.343 43 9.229 43 13v2H5v-2zM9.981 21.454V36h2.983v-9.503h.12l3.765 9.432h2.031l3.764-9.396h.121V36h2.983V21.454h-3.793l-4.005 9.773h-.17l-4.006-9.773H9.98zm23.173 14.76c3.31 0 5.37-2.267 5.37-5.626 0-3.38-2.06-5.64-5.37-5.64s-5.37 2.26-5.37 5.64c0 3.36 2.06 5.625 5.37 5.625zm.014-2.345c-1.527 0-2.308-1.399-2.308-3.302 0-1.904.781-3.31 2.308-3.31 1.499 0 2.28 1.406 2.28 3.31 0 1.903-.781 3.302-2.28 3.302z"/>
</svg>
